; HEADER_BLOCK_START
; generated by OrcaSlicer 2.2.0 on 2025-09-02 at 16:49:33
; total layer number: 240
; filament_density: 1.24
; filament_diameter: 1.75
; max_z_height: 48.05
; HEADER_BLOCK_END

; THUMBNAIL_BLOCK_START

;
; THUMBNAIL_BLOCK_END

; THUMBNAIL_BLOCK_START

;
; THUMBNAIL_BLOCK_END

; THUMBNAIL_BLOCK_START

;
; THUMBNAIL_BLOCK_END

; external perimeters extrusion width = 0.40mm
; perimeters extrusion width = 0.42mm
; infill extrusion width = 0.45mm
; solid infill extrusion width = 0.45mm
; top infill extrusion width = 0.42mm
; first layer extrusion width = 0.50mm

; EXECUTABLE_BLOCK_START
EXCLUDE_OBJECT_DEFINE NAME=3DBenchy.stl_id_0_copy_0 CENTER=175,175 POLYGON=[[145,165.816],[145.002,165.755],[145.007,165.699],[145.012,165.646],[145.014,165.63],[145.02,165.583],[145.028,165.525],[145.046,165.436],[145.058,165.379],[145.074,165.322],[145.081,165.296],[145.097,165.239],[145.126,165.155],[145.141,165.118],[145.162,165.064],[145.169,165.047],[145.186,165.01],[145.209,164.958],[145.231,164.916],[145.264,164.854],[145.278,164.827],[145.291,164.806],[145.34,164.727],[145.357,164.7],[145.371,164.679],[145.405,164.631],[145.44,164.584],[145.484,164.531],[145.508,164.501],[145.539,164.466],[145.578,164.423],[145.592,164.408],[145.6,164.4],[145.641,164.359],[145.661,164.34],[145.704,164.3],[145.737,164.271],[145.783,164.234],[145.793,164.225],[145.828,164.197],[145.887,164.154],[145.935,164.121],[145.979,164.092],[146.044,164.052],[146.071,164.036],[146.124,164.008],[146.148,163.995],[146.175,163.981],[146.197,163.97],[146.253,163.944],[146.312,163.919],[146.362,163.899],[146.417,163.879],[146.429,163.875],[146.472,163.861],[146.485,163.857],[146.541,163.84],[146.548,163.838],[146.584,163.828],[146.597,163.825],[146.625,163.818],[146.641,163.814],[146.71,163.799],[146.739,163.794],[146.769,163.789],[146.798,163.784],[174.812,159.886],[175.055,159.853],[175.299,159.821],[175.543,159.791],[175.882,159.752],[176.105,159.728],[176.35,159.702],[176.596,159.678],[176.842,159.656],[177.087,159.635],[177.253,159.622],[177.333,159.616],[177.523,159.602],[177.579,159.598],[177.826,159.581],[177.987,159.571],[178.071,159.566],[178.232,159.557],[178.489,159.544],[178.597,159.539],[178.619,159.538],[178.755,159.532],[178.906,159.526],[179.05,159.521],[179.167,159.517],[179.233,159.515],[179.342,159.512],[179.46,159.509],[179.548,159.507],[179.689,159.504],[179.881,159.501],[180.062,159.499],[180.18,159.498],[180.578,159.498],[180.934,159.5],[181.369,159.508],[181.45,159.51],[181.805,159.52],[181.912,159.524],[182.24,159.537],[182.677,159.558],[183.009,159.578],[183.092,159.583],[183.202,159.59],[183.375,159.602],[183.495,159.611],[183.641,159.622],[183.728,159.629],[183.909,159.644],[184.04,159.655],[184.832,159.78],[184.841,159.782],[185.269,159.888],[185.377,159.915],[185.595,159.97],[185.737,160.007],[185.813,160.027],[185.967,160.068],[186.248,160.145],[186.424,160.195],[186.68,160.27],[186.896,160.334],[187.111,160.4],[187.332,160.47],[187.558,160.543],[187.752,160.607],[188.008,160.694],[188.178,160.753],[188.232,160.772],[188.4,160.832],[188.601,160.905],[188.822,160.987],[189.033,161.067],[189.233,161.145],[189.343,161.188],[189.443,161.228],[189.453,161.232],[189.662,161.316],[189.871,161.402],[189.927,161.425],[190.134,161.513],[190.341,161.603],[190.547,161.693],[190.957,161.879],[191.16,161.974],[191.363,162.07],[191.565,162.168],[191.766,162.267],[191.967,162.367],[192.166,162.469],[192.366,162.572],[192.563,162.677],[192.762,162.783],[192.957,162.89],[193.153,162.999],[193.348,163.11],[193.543,163.221],[193.737,163.334],[193.93,163.449],[194.123,163.565],[194.314,163.683],[194.505,163.801],[194.696,163.922],[194.885,164.043],[195.075,164.167],[195.262,164.291],[195.451,164.417],[195.637,164.544],[195.824,164.673],[196.008,164.803],[196.193,164.934],[196.376,165.067],[196.56,165.201],[196.742,165.337],[196.923,165.474],[197.104,165.612],[197.284,165.752],[197.463,165.893],[197.642,166.036],[197.82,166.18],[197.998,166.325],[198.173,166.472],[198.523,166.77],[198.697,166.921],[198.87,167.074],[199.042,167.228],[199.214,167.384],[199.328,167.489],[199.498,167.645],[199.665,167.803],[199.832,167.962],[199.996,168.122],[200.161,168.283],[200.325,168.445],[200.486,168.609],[200.647,168.773],[200.807,168.939],[200.966,169.106],[201.124,169.274],[201.282,169.443],[201.438,169.614],[201.592,169.785],[201.745,169.958],[201.898,170.132],[202.05,170.306],[202.2,170.483],[202.349,170.66],[202.498,170.838],[202.645,171.017],[202.791,171.198],[202.936,171.38],[203.081,171.563],[203.223,171.747],[203.364,171.932],[203.505,172.118],[203.645,172.305],[203.784,172.493],[203.921,172.683],[204.056,172.874],[204.192,173.065],[204.325,173.258],[204.458,173.452],[204.589,173.647],[204.618,173.692],[204.651,173.745],[204.682,173.798],[204.713,173.852],[204.742,173.907],[204.769,173.962],[204.819,174.076],[204.834,174.117],[204.856,174.175],[204.876,174.233],[204.895,174.292],[204.912,174.351],[204.929,174.413],[204.943,174.47],[204.954,174.53],[204.966,174.593],[204.975,174.652],[204.984,174.713],[204.991,174.774],[204.995,174.836],[204.998,174.905],[205,174.966],[205,175.027],[204.999,175.088],[204.996,175.149],[204.992,175.209],[204.986,175.27],[204.977,175.331],[204.968,175.391],[204.958,175.449],[204.945,175.512],[204.932,175.569],[204.916,175.632],[204.901,175.686],[204.883,175.745],[204.863,175.803],[204.842,175.861],[204.82,175.918],[204.797,175.974],[204.771,176.03],[204.744,176.086],[204.716,176.14],[204.686,176.194],[204.655,176.248],[204.623,176.301],[204.589,176.353],[204.472,176.527],[204.339,176.721],[204.206,176.914],[204.071,177.106],[203.936,177.297],[203.797,177.487],[203.659,177.676],[203.52,177.864],[203.38,178.05],[203.237,178.236],[203.095,178.42],[202.95,178.604],[202.659,178.968],[202.51,179.148],[202.361,179.328],[202.21,179.506],[202.06,179.683],[201.907,179.86],[201.752,180.035],[201.597,180.209],[201.482,180.337],[201.325,180.509],[201.167,180.68],[201.008,180.85],[200.848,181.018],[200.688,181.186],[200.526,181.352],[200.2,181.68],[200.034,181.841],[199.869,182.002],[199.703,182.161],[199.535,182.319],[199.367,182.475],[199.199,182.63],[199.028,182.784],[198.857,182.937],[198.686,183.089],[198.512,183.239],[198.338,183.388],[198.164,183.536],[197.987,183.682],[197.811,183.827],[197.632,183.971],[197.454,184.114],[197.275,184.256],[197.093,184.396],[196.911,184.535],[196.728,184.673],[196.544,184.81],[196.359,184.945],[196.173,185.08],[195.799,185.344],[195.611,185.474],[195.421,185.603],[195.23,185.731],[195.039,185.857],[194.846,185.982],[194.653,186.106],[194.458,186.228],[194.263,186.349],[194.067,186.469],[193.869,186.587],[193.672,186.704],[193.472,186.819],[193.272,186.934],[193.072,187.046],[192.87,187.158],[192.595,187.307],[192.395,187.412],[192.196,187.516],[191.996,187.618],[191.796,187.719],[191.595,187.818],[191.392,187.916],[191.19,188.012],[190.987,188.107],[190.783,188.2],[190.579,188.292],[190.374,188.383],[190.169,188.472],[189.963,188.559],[189.756,188.645],[189.666,188.682],[189.549,188.73],[189.341,188.813],[189.122,188.898],[189.003,188.944],[188.704,189.057],[188.493,189.134],[188.293,189.206],[188.071,189.284],[187.884,189.348],[187.869,189.353],[187.656,189.424],[187.443,189.494],[187.207,189.57],[187.005,189.632],[186.979,189.64],[186.751,189.709],[186.523,189.776],[186.295,189.841],[186.142,189.884],[186.065,189.905],[185.924,189.943],[185.707,190.001],[185.606,190.027],[185.488,190.057],[185.269,190.112],[184.843,190.218],[184.316,190.319],[184.306,190.32],[184.05,190.344],[184.003,190.348],[183.81,190.364],[183.725,190.371],[183.561,190.384],[183.481,190.39],[183.134,190.414],[182.688,190.441],[182.649,190.443],[182.264,190.462],[182.126,190.468],[181.778,190.481],[181.564,190.487],[181.344,190.493],[180.907,190.5],[180.522,190.502],[180.177,190.502],[179.877,190.499],[179.821,190.498],[179.599,190.494],[179.457,190.491],[179.338,190.488],[179.166,190.483],[179.076,190.48],[178.93,190.475],[178.752,190.468],[178.728,190.467],[178.57,190.46],[178.463,190.455],[178.332,190.448],[178.133,190.437],[177.889,190.423],[177.644,190.407],[177.629,190.406],[177.342,190.385],[177.096,190.366],[176.849,190.345],[176.667,190.328],[176.603,190.322],[176.423,190.305],[176.179,190.28],[176.111,190.273],[175.935,190.254],[175.619,190.218],[175.373,190.188],[175.204,190.166],[174.882,190.124],[146.827,186.22],[146.792,186.215],[146.743,186.207],[146.686,186.196],[146.653,186.189],[146.597,186.175],[146.584,186.172],[146.548,186.162],[146.536,186.159],[146.481,186.142],[146.429,186.125],[146.417,186.121],[146.362,186.101],[146.312,186.081],[146.253,186.056],[146.197,186.03],[146.155,186.009],[146.105,185.982],[146.086,185.972],[146.044,185.948],[145.993,185.917],[145.979,185.908],[145.944,185.885],[145.935,185.879],[145.887,185.846],[145.847,185.817],[145.84,185.811],[145.793,185.775],[145.756,185.744],[145.749,185.738],[145.704,185.7],[145.661,185.66],[145.641,185.64],[145.592,185.592],[145.557,185.555],[145.539,185.534],[145.519,185.511],[145.481,185.466],[145.445,185.42],[145.431,185.402],[145.41,185.374],[145.407,185.37],[145.373,185.322],[145.357,185.3],[145.342,185.278],[145.308,185.224],[145.278,185.173],[145.25,185.122],[145.231,185.084],[145.218,185.06],[145.195,185.012],[145.169,184.954],[145.148,184.903],[145.127,184.849],[145.109,184.793],[145.107,184.79],[145.09,184.738],[145.075,184.682],[145.06,184.625],[145.046,184.564],[145.035,184.507],[145.026,184.454],[145.025,184.448],[145.016,184.396],[145.012,184.353],[145.008,184.325],[145.002,184.245],[145,184.208],[145,184.179],[145,165.816]]
M73 P0 R28
;TYPE:Custom
START_PRINT BED_TEMP=65 ;set bed temp variable. this from Github
G28
G90
G1 X0 F9000
G1 Y20
G1 Z0.600 F600
G1 Y0 F9000
START_PRINT
G90
G1 X0 F9000
G1 Y20
G1 Z0.600 F600
G1 Y0 F9000
M400
G91
M83
M140 S65 ;set bed temp
M104 S210 ;set extruder temp
M190 S65 ;wait for bed temp
M109 S210;wait for extruder temp
G1 E25 F300
G4 P1000
G1 E-0.200 Z5 F600
G1 X88.000 F9000
G1 Z-5.000 F600
G1 X87.000 E20.88 F1800
G1 X87.000 E13.92 F1800
G1 Y1 E0.16 F1800
G1 X-87.000 E13.92 F1800
G1 X-87.000 E20.88 F1800
G1 Y1 E0.24 F1800
M73 P1 R28
M73 P1 R28
G1 X87.000 E20.88 F1800
G1 X87.000 E13.92 F1800
G1 E-0.200 Z1 F600
M400
G90
G21
M83 ; use relative distances for extrusion
; filament start gcode
M106 S0
;LAYER_CHANGE
;Z:0.25
;HEIGHT:0.25
TIMELAPSE_TAKE_FRAME
G92 E0
G1 E-.5 F1800
;_SET_FAN_SPEED_CHANGING_LAYER
SET_VELOCITY_LIMIT ACCEL=3000 ACCEL_TO_DECEL=1500
G1 Z.65 F36000
G1 X153.958 Y167.923
G1 Z.65
G1 Z.25
G1 E.5 F1800
;TYPE:Skirt
;WIDTH:0.5
G1 F3000
G1 X175.291 Y166.662 E.99141
G1 X176.994 Y166.784 E.07925
G1 X178.955 Y167.172 E.09272
G1 X180.863 Y167.818 E.09345
G1 X182.683 Y168.723 E.0943
G1 X184.365 Y169.861 E.09423
G1 X185.873 Y171.209 E.09383
G1 X187.144 Y172.686 E.09042
G1 X188.211 Y174.317 E.0904
G1 X188.371 Y174.943 E.02997
G1 X188.264 Y175.561 E.02911
G1 X187.708 Y176.514 E.05119
M73 P1 R27
M73 P1 R27
G1 X186.839 Y177.706 E.06843
G1 X185.692 Y178.973 E.07928
G1 X184.627 Y179.931 E.06644
G1 X183.513 Y180.757 E.06436
G1 X182.314 Y181.485 E.06506
G1 X180.528 Y182.316 E.09137
G1 X178.622 Y182.913 E.09267
G1 X176.739 Y183.246 E.08871
G1 X174.815 Y183.338 E.08939
G1 X150.743 Y181.886 E1.11876
G1 X150.279 Y181.805 E.02188
G1 X149.823 Y181.605 E.02312
G1 X149.425 Y181.283 E.02375
G1 X149.165 Y180.931 E.02028
G1 X148.964 Y180.434 E.02487
G1 X148.893 Y179.893 E.02528
G1 X148.896 Y170.011 E.45846
G1 X149 Y169.446 E.02664
G1 X149.182 Y169.041 E.02063
G1 X149.517 Y168.626 E.02471
G1 X149.937 Y168.331 E.02383
G1 X150.751 Y168.113 E.03909
G1 X153.918 Y167.926 E.14719
; printing object 3DBenchy.stl id:0 copy 0
;WIPE_START
G1 X155.915 Y167.808 E-.5
;WIPE_END
EXCLUDE_OBJECT_START NAME=3DBenchy.stl_id_0_copy_0
G1 Z.65 F36000
G1 X184.123 Y176.801 Z.65
G1 Z.25
G1 E.5 F1800
;TYPE:Outer wall
G1 X184.25 Y176.476 E.0162
G1 X184.677 Y176.004 E.02955
G1 X185.158 Y175.363 E.03716
G1 X185.637 Y174.656 E.03961
G1 X185.782 Y174.285 E.01849
G1 X185.811 Y173.99 E.01372
G1 X185.75 Y173.64 E.01648
G1 X185.599 Y173.379 E.01398
G1 X185.461 Y173.262 E.00839
G1 X185.306 Y173.186 E.00802
G1 X185.059 Y173.135 E.01172
G1 X183.06 Y173.131 E.09274
G1 X182.653 Y173.163 E.01893
G1 X182.346 Y173.264 E.01498
G1 X182.186 Y173.363 E.00874
G1 X182.044 Y173.577 E.0119
G1 X181.985 Y173.937 E.01694
G1 X182.004 Y174.155 E.01019
G1 X182.066 Y174.398 E.01163
G1 X182.173 Y174.552 E.00869
G1 X182.331 Y174.658 E.00881
G1 X182.754 Y174.766 E.02029
G1 X183.034 Y174.729 E.01307
G1 X183.623 Y174.741 E.02735
G1 X183.469 Y175.017 E.01467
G1 X182.87 Y175.714 E.04264
G1 X182.185 Y176.632 E.05313
G1 X182.05 Y176.842 E.0116
G1 X181.921 Y177.111 E.01384
G1 X181.845 Y177.468 E.01692
G1 X181.884 Y177.826 E.01673
G1 X181.95 Y178.004 E.00882
G1 X182.055 Y178.173 E.0092
G1 X182.18 Y178.298 E.00822
G1 X182.381 Y178.407 E.01059
G1 X182.557 Y178.446 E.00838
G1 X184.363 Y178.415 E.08379
G1 X184.849 Y178.375 E.02261
G1 X185.001 Y178.325 E.00744
G1 X185.23 Y178.3 E.01068
G1 X185.482 Y178.227 E.01216
G1 X185.588 Y178.405 E.00961
G1 X185.154 Y178.814 E.02765
G1 X184.862 Y179.012 E.01638
G1 X183.979 Y179.713 E.05229
G1 X183.392 Y180.145 E.03382
G1 X182.677 Y180.613 E.03965
G1 X182.037 Y180.983 E.03429
G1 X181.209 Y181.403 E.04309
G1 X180.325 Y181.78 E.0446
G1 X179.413 Y182.099 E.04479
G1 X178.485 Y182.357 E.04467
G1 X177.538 Y182.554 E.04491
G1 X176.673 Y182.676 E.04051
G1 X175.775 Y182.749 E.04179
G1 X174.825 Y182.765 E.04409
G1 X174.16 Y182.739 E.03089
G1 X150.795 Y181.315 E1.08596
G1 X150.445 Y181.256 E.0165
G1 X150.124 Y181.117 E.0162
G1 X149.969 Y181.008 E.0088
G1 X149.844 Y180.891 E.00793
G1 X149.664 Y180.646 E.0141
G1 X149.581 Y180.475 E.00881
G1 X149.518 Y180.284 E.00935
G1 X149.48 Y180.079 E.00966
G1 X149.466 Y179.876 E.00946
G1 X149.46 Y176.949 E.13575
G1 X149.376 Y175.483 E.06815
G1 X149.366 Y175.004 E.02223
G1 X149.373 Y174.525 E.0222
G1 X149.457 Y173.059 E.06811
G1 X149.469 Y170.044 E.1399
G1 X149.519 Y169.712 E.01557
G1 X149.581 Y169.525 E.00912
G1 X149.673 Y169.338 E.00971
G1 X149.773 Y169.193 E.00813
G1 X149.905 Y169.049 E.0091
G1 X150.045 Y168.935 E.00833
G1 X150.2 Y168.842 E.00842
G1 X150.482 Y168.735 E.01398
G1 X150.8 Y168.684 E.01493
G1 X174.178 Y167.259 E1.08662
G1 X175.286 Y167.235 E.05137
G1 X176.116 Y167.271 E.03855
G1 X176.917 Y167.352 E.03736
G1 X177.729 Y167.481 E.03815
G1 X178.805 Y167.725 E.05121
G1 X179.6 Y167.961 E.03847
G1 X180.645 Y168.349 E.05169
G1 X181.49 Y168.732 E.04306
G1 X182.392 Y169.216 E.04747
G1 X183.107 Y169.661 E.03909
G1 X184.012 Y170.312 E.05172
G1 X184.8 Y170.973 E.04772
G1 X185.465 Y171.611 E.04273
G1 X186.069 Y172.268 E.04142
G1 X186.685 Y173.03 E.04546
G1 X187.213 Y173.778 E.04248
G1 X187.697 Y174.573 E.04317
G1 X187.765 Y174.758 E.00918
G1 X187.797 Y174.973 E.01007
G1 X187.778 Y175.186 E.00989
G1 X187.699 Y175.42 E.01149
G1 X187.229 Y176.198 E.04217
G1 X186.406 Y177.392 E.0673
G1 X186.239 Y177.687 E.01571
G1 X185.905 Y178.055 E.02305
G1 X185.723 Y177.962 E.0095
G1 X185.79 Y177.638 E.01536
G1 X185.777 Y177.286 E.01636
G1 X185.659 Y177.045 E.01244
G1 X185.453 Y176.907 E.0115
G1 X185.224 Y176.811 E.01154
G1 X185.012 Y176.777 E.00996
G1 X184.722 Y176.759 E.01348
G1 X184.464 Y176.806 E.01216
G1 X184.143 Y176.801 E.0149
G1 X184.996 Y176.322 F36000
;TYPE:Inner wall
G1 F1800
G1 X185.521 Y175.622 E.04061
G1 X186.035 Y174.865 E.04244
G1 X186.22 Y174.389 E.02367
G1 X186.261 Y173.974 E.01938
G1 X186.167 Y173.432 E.02553
G1 X186.364 Y173.349 E.00994
G1 X186.84 Y174.023 E.03823
G1 X187.293 Y174.768 E.04048
G1 X187.348 Y174.986 E.01042
G1 X187.338 Y175.093 E.00499
G1 X187.292 Y175.231 E.00676
G1 X186.854 Y175.956 E.03927
G1 X186.134 Y177 E.05883
G1 X186.008 Y176.74 E.01341
G1 X185.665 Y176.512 E.01908
G1 X185.347 Y176.378 E.016
G1 X185.016 Y176.326 E.01557
;WIPE_START
G1 X185.521 Y175.622 E-.21657
G1 X186.035 Y174.865 E-.22869
G1 X186.114 Y174.661 E-.05474
;WIPE_END
G1 Z.65 F36000
G1 X152.914 Y176.665 Z.65
G1 Z.25
G1 E.5 F1800
;TYPE:Outer wall
G1 X153.027 Y176.618 E.00567
G1 X153.094 Y176.568 E.00391
